assets/fnac/original.svg

<svg viewBox="0 0 24 24" xmlns="http://www.w3.org/2000/svg" fill="#E1A925"><path d="m20.874 7.2s-1.622-.106-1.684 1.369v.04c.062 1.476 1.684 1.39 1.684 1.39.737 0 1.137-.23 1.326-.652h.842l.232-1.495h-1.094c-.19-.42-.569-.673-1.305-.652zm-4.59 1.516c-.147.19-.862.19-.862.19-.717.042-1.79.02-1.769.652.02.673.884.59 1.305.569.464-.021.863-.148 1.18-.548.294-.337.168-.842.146-.863.022-.021 0 0 0 0zm-12.989-8.716-1.01 6.358h.442c-.02-.19-.02-.97.547-1.474 0 0 .632-.632 2.485-.485 0 0 1.894.148 1.894 1.516h-1.306s-.042-.757-1.22-.715c0 0-1.2-.021-1.096 1.137h3.621v.59c.106-.17.38-.443 1.074-.632 0 0 2.968-.654 3.284 1.474v2.989h-1.304v-2.442c-.19-1.326-1.686-1.095-1.686-1.095-1.011.084-1.306.673-1.369 1.095v2.484h-1.304v-3.537h-2.295v3.537h-1.305v-3.537h-.59l-2.147 13.453 20.716 3.284 2.148-13.622c-.442.316-1.179.548-2.358.485-.484-.021-.863-.085-1.179-.21-.59-.21-1.536-.822-1.536-2.001v-.147c-.022-1.16.947-1.769 1.536-2 .316-.126.695-.17 1.18-.21 1.768-.106 2.525.483 2.841.989l.633-4.043zm13.075 10.799-.043-.505v-.02c-.526.652-1.789.609-1.789.609-2.358.043-2.316-1.241-2.316-1.241-.19-1.348 1.537-1.327 2.968-1.41 1.432-.085 1.095-.653 1.095-.653-.063-.464-1.094-.506-1.094-.506-1.432-.105-1.453.757-1.453.757h-1.348s0-1.136 1.411-1.452c.02 0 .842-.252 2.295 0 0 0 1.62.21 1.516 1.768l.042 2.674h-1.284z"/></svg>

<svg xmlns="http://www.w3.org/2000/svg" fill="#e1a925" viewBox="0 0 24 24"><path d="M20.874 7.2s-1.622-.106-1.684 1.369v.04c.062 1.476 1.684 1.39 1.684 1.39.737 0 1.137-.23 1.326-.652h.842l.232-1.495H22.18c-.19-.42-.569-.673-1.305-.652zm-4.59 1.516c-.147.19-.862.19-.862.19-.717.042-1.79.02-1.769.652.02.673.884.59 1.305.569.464-.021.863-.148 1.18-.548.294-.337.168-.842.146-.863.022-.021 0 0 0 0M3.295 0l-1.01 6.358h.442c-.02-.19-.02-.97.547-1.474 0 0 .632-.632 2.485-.485 0 0 1.894.148 1.894 1.516H6.347s-.042-.757-1.22-.715c0 0-1.2-.021-1.096 1.137h3.621v.59c.106-.17.38-.443 1.074-.632 0 0 2.968-.654 3.284 1.474v2.989h-1.304V8.316C10.516 6.99 9.02 7.221 9.02 7.221c-1.011.084-1.306.673-1.369 1.095V10.8H6.347V7.263H4.052V10.8H2.747V7.263h-.59L.01 20.716 20.726 24l2.148-13.622c-.442.316-1.179.548-2.358.485-.484-.021-.863-.085-1.179-.21-.59-.21-1.536-.822-1.536-2.001v-.147c-.022-1.16.947-1.769 1.536-2 .316-.126.695-.17 1.18-.21 1.768-.106 2.525.483 2.841.989l.633-4.043zM16.37 10.799l-.043-.505v-.02c-.526.652-1.789.609-1.789.609-2.358.043-2.316-1.241-2.316-1.241-.19-1.348 1.537-1.327 2.968-1.41 1.432-.085 1.095-.653 1.095-.653-.063-.464-1.094-.506-1.094-.506-1.432-.105-1.453.757-1.453.757H12.39s0-1.136 1.411-1.452c.02 0 .842-.252 2.295 0 0 0 1.62.21 1.516 1.768l.042 2.674H16.37z"/></svg>
